X:3
T:Stronsay Waltz
Z:Jack Campin, 2006, http://www.campin.me.uk/
M:3/4 
L:1/8 
Q:3/4=60
K:A
   ed|c3 Bcd|e2 c2 A2|d3 cde|f2 a2 f2|e2 c2 A2|[1 A2 c2 e2|B6-|B4:|
                                               [2 B4    e2|A6-|A4||
   e2|a3 gaf|e2 c2 A2|d3 cde|f2 a2 f2|e2 c2 A2|   A2 c2 e2|B6-|B4
[1 e2|a3 gaf|e2 c2 A2|d3 cde|f2 a2 f2|e2 c2 A2|   B4    e2|A6-|A4:|
[2 ed|c3 Bcd|e2 c2 A2|d3 cde|f2 a2 f2|e2 c2 A2|   B4    e2|A6-|A4|]
